flaticon/constructions/wrench-7.svg

<svg xmlns="http://www.w3.org/2000/svg" width="32" height="32" viewBox="0 0 24 24">
    <path d="M 23.160156 19.191406 C 22.734375 18.761719 22.191406 18.507812 21.628906 18.417969 C 20.003906 17.480469 17.941406 15.691406 16.648438 14.398438 L 14.257812 11.992188 L 16.527344 9.722656 C 18.007812 8.246094 19.40625 7.207031 20.964844 6.40625 C 20.96875 6.40625 20.976562 6.402344 20.980469 6.398438 C 21.746094 6.347656 22.492188 6.035156 23 5.488281 C 23.679688 4.808594 24 3.851562 23.921875 2.890625 C 23.921875 2.769531 23.839844 2.652344 23.71875 2.570312 C 23.601562 2.492188 23.441406 2.492188 23.320312 2.570312 L 21.363281 3.730469 C 20.84375 3.488281 20.523438 2.972656 20.5625 2.371094 L 22.480469 1.253906 C 22.601562 1.214844 22.679688 1.054688 22.679688 0.933594 C 22.679688 0.773438 22.601562 0.652344 22.480469 0.574219 C 21.042969 -0.386719 19.125 0.015625 18.128906 1.414062 C 17.785156 1.898438 17.597656 2.457031 17.558594 3.023438 C 16.761719 4.578125 15.726562 6.011719 14.25 7.484375 L 12.007812 9.730469 L 9.855469 7.566406 C 8.378906 6.085938 7.339844 4.6875 6.539062 3.128906 C 6.53125 3.101562 6.515625 3.074219 6.496094 3.050781 C 6.429688 2.3125 6.117188 1.628906 5.582031 1.09375 C 4.863281 0.375 4.0625 0.015625 3.183594 0.015625 C 3.066406 0.015625 2.945312 0.09375 2.867188 0.214844 C 2.785156 0.332031 2.785156 0.453125 2.824219 0.574219 L 3.824219 2.730469 L 3.824219 2.769531 C 3.585938 3.25 3.105469 3.570312 2.585938 3.609375 L 1.105469 1.371094 C 1.027344 1.292969 0.90625 1.214844 0.789062 1.214844 C 0.667969 1.214844 0.546875 1.292969 0.46875 1.414062 C -0.449219 2.769531 0.0273438 4.929688 1.507812 5.96875 C 2.027344 6.339844 2.621094 6.539062 3.214844 6.5625 C 4.746094 7.359375 6.125 8.386719 7.578125 9.84375 L 9.691406 11.964844 L 7.460938 14.199219 C 6.621094 15.035156 5.144531 16.113281 2.984375 17.554688 C 2.234375 17.613281 1.535156 17.925781 0.988281 18.472656 C 0.308594 19.152344 -0.0117188 20.109375 0.0703125 21.070312 C 0.0703125 21.1875 0.148438 21.308594 0.269531 21.390625 C 0.386719 21.46875 0.546875 21.46875 0.667969 21.390625 L 2.625 20.230469 C 3.144531 20.511719 3.464844 21.027344 3.425781 21.628906 L 1.507812 22.746094 C 1.386719 22.785156 1.308594 22.90625 1.308594 23.066406 C 1.308594 23.226562 1.386719 23.347656 1.507812 23.425781 C 2.066406 23.785156 2.664062 23.945312 3.265625 23.945312 C 4.261719 23.945312 5.222656 23.464844 5.863281 22.546875 C 6.238281 22.011719 6.425781 21.390625 6.4375 20.765625 C 7.828125 18.648438 8.875 17.253906 9.695312 16.433594 L 11.921875 14.210938 L 14.371094 16.675781 C 15.679688 17.984375 17.5 20.039062 18.425781 21.710938 C 18.539062 22.257812 18.816406 22.757812 19.207031 23.148438 C 19.726562 23.707031 20.40625 23.984375 21.164062 23.984375 C 21.921875 23.984375 22.601562 23.707031 23.160156 23.148438 C 23.71875 22.585938 24 21.867188 24 21.148438 C 24 20.429688 23.679688 19.710938 23.160156 19.191406 Z M 5.222656 22.109375 C 4.625 22.945312 3.542969 23.304688 2.585938 23.027344 L 4.023438 22.1875 C 4.144531 22.109375 4.222656 21.988281 4.222656 21.867188 L 4.222656 21.667969 C 4.304688 20.75 3.785156 19.910156 2.984375 19.511719 L 2.785156 19.429688 C 2.664062 19.351562 2.546875 19.351562 2.425781 19.429688 L 0.90625 20.308594 C 0.988281 19.832031 1.226562 19.390625 1.585938 19.03125 C 2.105469 18.550781 2.785156 18.273438 3.503906 18.351562 C 4.109375 18.417969 4.660156 18.714844 5.058594 19.164062 C 5.117188 19.238281 5.171875 19.3125 5.222656 19.390625 C 5.460938 19.75 5.621094 20.191406 5.621094 20.667969 C 5.621094 20.722656 5.628906 20.765625 5.644531 20.808594 C 5.632812 21.265625 5.496094 21.71875 5.222656 22.109375 Z M 9.175781 15.957031 C 8.421875 16.671875 7.464844 17.90625 6.269531 19.699219 C 6.179688 19.4375 6.058594 19.1875 5.902344 18.953125 C 5.488281 18.363281 4.925781 17.925781 4.273438 17.707031 C 4.605469 17.484375 4.917969 17.269531 5.214844 17.066406 L 5.78125 17.632812 C 5.863281 17.714844 5.941406 17.753906 6.0625 17.753906 C 6.179688 17.753906 6.300781 17.714844 6.339844 17.632812 C 6.5 17.472656 6.5 17.234375 6.339844 17.074219 L 5.867188 16.601562 C 6.113281 16.421875 6.339844 16.253906 6.554688 16.085938 L 6.941406 16.472656 C 7.019531 16.554688 7.101562 16.59375 7.21875 16.59375 C 7.300781 16.59375 7.417969 16.554688 7.5 16.472656 C 7.660156 16.316406 7.660156 16.074219 7.5 15.914062 L 7.175781 15.589844 C 7.519531 15.304688 7.816406 15.039062 8.058594 14.796875 L 10.296875 12.597656 L 11.414062 13.71875 Z M 18.804688 1.851562 C 19.285156 1.171875 20.003906 0.8125 20.765625 0.8125 C 21.003906 0.8125 21.242188 0.851562 21.402344 0.894531 L 19.964844 1.730469 C 19.84375 1.8125 19.765625 1.933594 19.765625 2.050781 L 19.765625 2.25 C 19.726562 3.171875 20.203125 4.007812 21.003906 4.410156 L 21.242188 4.527344 C 21.363281 4.609375 21.484375 4.609375 21.601562 4.527344 L 23.121094 3.648438 C 23.042969 4.128906 22.800781 4.570312 22.441406 4.929688 C 21.996094 5.339844 21.429688 5.605469 20.824219 5.621094 C 20.792969 5.613281 20.761719 5.609375 20.722656 5.609375 C 20.539062 5.609375 20.359375 5.585938 20.183594 5.542969 C 19.605469 5.394531 19.101562 5.03125 18.765625 4.527344 C 18.246094 3.730469 18.246094 2.652344 18.804688 1.851562 Z M 14.851562 8.003906 C 16.050781 6.804688 17.007812 5.609375 17.726562 4.328125 C 17.808594 4.570312 17.925781 4.769531 18.046875 4.96875 C 18.253906 5.277344 18.503906 5.53125 18.777344 5.742188 C 19.027344 5.9375 19.300781 6.097656 19.597656 6.210938 C 18.320312 6.96875 17.164062 7.925781 15.929688 9.164062 L 13.679688 11.410156 L 12.566406 10.289062 Z M 0.867188 2.453125 L 2.027344 4.25 C 2.105469 4.328125 2.226562 4.410156 2.347656 4.410156 C 3.183594 4.488281 4.105469 3.929688 4.503906 3.128906 L 4.625 2.929688 C 4.664062 2.8125 4.664062 2.691406 4.625 2.570312 L 3.863281 0.933594 C 4.261719 1.09375 4.664062 1.332031 5.023438 1.691406 C 5.503906 2.210938 5.78125 2.890625 5.703125 3.609375 C 5.632812 4.214844 5.339844 4.765625 4.886719 5.164062 C 4.816406 5.222656 4.742188 5.277344 4.664062 5.328125 C 4.597656 5.378906 4.527344 5.425781 4.457031 5.464844 C 4.332031 5.535156 4.199219 5.589844 4.0625 5.632812 C 3.851562 5.699219 3.621094 5.726562 3.382812 5.726562 C 3.332031 5.726562 3.285156 5.734375 3.246094 5.75 C 2.789062 5.738281 2.335938 5.601562 1.945312 5.328125 C 1.027344 4.6875 0.628906 3.449219 0.867188 2.453125 Z M 12.308594 13.492188 C 12.289062 13.441406 12.257812 13.402344 12.214844 13.359375 L 10.535156 11.679688 C 10.496094 11.640625 10.453125 11.613281 10.410156 11.59375 L 8.140625 9.324219 C 6.902344 8.085938 5.742188 7.125 4.464844 6.367188 C 4.664062 6.246094 4.902344 6.167969 5.0625 6.046875 C 5.371094 5.839844 5.628906 5.59375 5.835938 5.316406 C 6.03125 5.066406 6.191406 4.792969 6.304688 4.496094 C 7.105469 5.773438 8.023438 6.929688 9.257812 8.164062 L 16.089844 15.035156 C 17.148438 16.097656 18.75 17.503906 20.25 18.539062 C 19.867188 18.671875 19.507812 18.890625 19.207031 19.191406 C 18.855469 19.515625 18.617188 19.902344 18.484375 20.332031 C 18.210938 19.933594 17.910156 19.527344 17.59375 19.125 L 18.085938 18.632812 C 18.246094 18.472656 18.246094 18.234375 18.085938 18.074219 C 17.925781 17.914062 17.6875 17.914062 17.527344 18.074219 L 17.097656 18.503906 C 16.921875 18.292969 16.742188 18.082031 16.566406 17.875 L 16.929688 17.511719 C 17.089844 17.355469 17.089844 17.113281 16.929688 16.953125 C 16.769531 16.792969 16.527344 16.792969 16.367188 16.953125 L 16.039062 17.28125 C 15.664062 16.867188 15.300781 16.484375 14.96875 16.15625 Z M 22.5625 22.585938 C 22.203125 22.988281 21.683594 23.1875 21.164062 23.1875 C 20.644531 23.1875 20.164062 22.945312 19.765625 22.585938 C 19.476562 22.328125 19.292969 21.984375 19.210938 21.613281 C 19.214844 21.582031 19.214844 21.546875 19.207031 21.507812 C 19.125 20.871094 19.324219 20.230469 19.765625 19.789062 C 20.203125 19.351562 20.84375 19.152344 21.484375 19.230469 C 21.503906 19.230469 21.527344 19.230469 21.546875 19.226562 C 21.929688 19.300781 22.292969 19.488281 22.5625 19.789062 C 22.960938 20.148438 23.160156 20.667969 23.160156 21.1875 C 23.160156 21.707031 22.921875 22.1875 22.5625 22.585938 Z M 22.5625 22.585938"/>
    <path d="M 22.28125 20.789062 L 21.5625 20.789062 L 21.5625 20.03125 C 21.5625 19.789062 21.402344 19.632812 21.164062 19.632812 C 20.921875 19.632812 20.765625 19.789062 20.765625 20.03125 L 20.765625 20.789062 L 20.003906 20.789062 C 19.765625 20.789062 19.605469 20.949219 19.605469 21.1875 C 19.605469 21.429688 19.765625 21.589844 20.003906 21.589844 L 20.765625 21.589844 L 20.765625 22.308594 C 20.765625 22.546875 20.921875 22.707031 21.164062 22.707031 C 21.402344 22.707031 21.5625 22.546875 21.5625 22.308594 L 21.5625 21.589844 L 22.28125 21.589844 C 22.523438 21.589844 22.679688 21.429688 22.679688 21.1875 C 22.679688 20.949219 22.523438 20.789062 22.28125 20.789062 Z M 22.28125 20.789062"/>
</svg>

<svg xmlns="http://www.w3.org/2000/svg" width="32" height="32" viewBox="0 0 24 24">
    <path d="M23.16 19.191a2.756 2.756 0 0 0-1.531-.773c-1.625-.938-3.688-2.727-4.98-4.02l-2.391-2.406 2.27-2.27c1.48-1.476 2.878-2.515 4.437-3.316a.03.03 0 0 0 .015-.008c.766-.05 1.512-.363 2.02-.91.68-.68 1-1.636.922-2.597 0-.121-.082-.239-.203-.32a.368.368 0 0 0-.399 0l-1.957 1.16a1.374 1.374 0 0 1-.8-1.36l1.917-1.117c.122-.04.2-.2.2-.32a.413.413 0 0 0-.2-.36c-1.437-.96-3.355-.558-4.351.84a3.148 3.148 0 0 0-.57 1.61c-.797 1.554-1.832 2.988-3.309 4.46L12.008 9.73 9.855 7.566C8.38 6.086 7.34 4.688 6.54 3.13a.22.22 0 0 0-.043-.078 3.141 3.141 0 0 0-.914-1.957C4.863.375 4.062.016 3.184.016c-.118 0-.239.078-.317.199a.384.384 0 0 0-.043.36l1 2.155v.04c-.238.48-.719.8-1.238.84L1.106 1.37c-.079-.078-.2-.156-.317-.156-.121 0-.242.078-.32.2C-.45 2.77.027 4.93 1.508 5.968c.52.37 1.113.57 1.707.593 1.531.797 2.91 1.825 4.363 3.282l2.113 2.12-2.23 2.235c-.84.836-2.316 1.914-4.477 3.356-.75.058-1.449.37-1.996.918-.68.68-1 1.636-.918 2.597 0 .117.078.239.2.32a.368.368 0 0 0 .398 0l1.957-1.16c.52.282.84.797.8 1.399l-1.917 1.117c-.121.04-.2.16-.2.32s.079.282.2.36c.558.36 1.156.52 1.758.52.996 0 1.957-.481 2.597-1.4a3.197 3.197 0 0 0 .574-1.78c1.391-2.118 2.438-3.512 3.258-4.332l2.227-2.223 2.45 2.465c1.308 1.308 3.128 3.363 4.054 5.035.113.547.39 1.047.781 1.437.52.559 1.2.836 1.957.836.758 0 1.438-.277 1.996-.836.559-.562.84-1.28.84-2 0-.718-.32-1.437-.84-1.957zM5.223 22.11a2.44 2.44 0 0 1-2.637.918l1.437-.84c.122-.078.2-.199.2-.32v-.199c.082-.918-.438-1.758-1.239-2.156l-.199-.082a.305.305 0 0 0-.36 0l-1.519.879c.082-.477.32-.918.68-1.278.52-.48 1.2-.758 1.918-.68a2.439 2.439 0 0 1 1.555.813c.058.074.113.148.164.227.238.359.398.8.398 1.277 0 .055.008.098.024.14-.012.458-.149.91-.422 1.301zm3.953-6.152c-.754.715-1.711 1.95-2.906 3.742a3.23 3.23 0 0 0-.368-.746c-.414-.59-.976-1.027-1.629-1.246.332-.223.645-.437.942-.64l.566.566c.082.082.16.12.282.12.117 0 .238-.038.277-.12a.385.385 0 0 0 0-.559l-.473-.472c.246-.18.473-.348.688-.516l.386.387c.079.082.16.12.278.12.082 0 .199-.038.281-.12a.385.385 0 0 0 0-.559l-.324-.324c.344-.285.64-.55.883-.793l2.238-2.2 1.117 1.122zm9.629-14.105c.48-.68 1.199-1.04 1.96-1.04.239 0 .477.04.637.083l-1.437.835c-.121.083-.2.204-.2.32v.2c-.038.922.438 1.758 1.239 2.16l.238.117c.121.082.242.082.36 0l1.52-.879c-.079.48-.321.922-.68 1.282-.446.41-1.012.675-1.618.691a.403.403 0 0 0-.101-.012c-.184 0-.364-.023-.54-.066a2.439 2.439 0 0 1-1.417-1.016 2.417 2.417 0 0 1 .039-2.675zm-3.953 6.152c1.199-1.2 2.156-2.395 2.875-3.676.082.242.199.442.32.64.207.31.457.563.73.774.25.196.524.356.82.469-1.277.758-2.433 1.715-3.667 2.953l-2.25 2.246-1.114-1.12zM.867 2.454l1.16 1.796c.078.078.2.16.32.16.837.078 1.758-.48 2.157-1.281l.121-.2a.566.566 0 0 0 0-.359L3.863.934c.399.16.801.398 1.16.757.48.52.758 1.2.68 1.918a2.444 2.444 0 0 1-.816 1.555c-.07.059-.145.113-.223.164-.066.05-.137.098-.207.137-.125.07-.258.125-.394.168a2.27 2.27 0 0 1-.68.094.371.371 0 0 0-.137.023 2.364 2.364 0 0 1-1.3-.422C1.026 4.688.628 3.45.866 2.453zM12.31 13.491a.377.377 0 0 0-.094-.133l-1.68-1.68a.422.422 0 0 0-.125-.085l-2.27-2.27C6.903 8.086 5.743 7.125 4.466 6.367c.2-.12.437-.199.598-.32.308-.207.566-.453.773-.73.195-.25.355-.524.469-.82.8 1.276 1.718 2.433 2.953 3.667l6.832 6.871c1.058 1.063 2.66 2.469 4.16 3.504a2.748 2.748 0 0 0-1.043.652c-.352.325-.59.711-.723 1.141a23.254 23.254 0 0 0-.89-1.207l.492-.492a.385.385 0 0 0 0-.559.385.385 0 0 0-.559 0l-.43.43c-.175-.211-.355-.422-.53-.629l.363-.363a.385.385 0 0 0 0-.559.39.39 0 0 0-.563 0l-.328.328a28.548 28.548 0 0 0-1.07-1.125zm10.254 9.094c-.36.402-.88.602-1.399.602-.52 0-1-.243-1.398-.602a1.815 1.815 0 0 1-.555-.973.326.326 0 0 0-.004-.105c-.082-.637.117-1.278.559-1.719.437-.437 1.078-.637 1.718-.559.02 0 .043 0 .063-.003.383.074.746.261 1.015.562.399.36.598.879.598 1.398 0 .52-.238 1-.598 1.399zm0 0"/>
    <path d="M22.281 20.79h-.718v-.759c0-.242-.16-.398-.399-.398-.242 0-.398.156-.398.398v.758h-.762c-.238 0-.399.16-.399.398 0 .243.16.403.399.403h.762v.719c0 .238.156.398.398.398.238 0 .398-.16.398-.398v-.72h.72c.241 0 .398-.16.398-.401 0-.239-.157-.399-.399-.399zm0 0"/>
</svg>
